components/ui-node-icon/src/folderSource/folderSource.small.svg

<svg width="16" height="16" viewBox="0 0 16 16" fill="none" xmlns="http://www.w3.org/2000/svg">
  <path fill-rule="evenodd" clip-rule="evenodd" d="M3 3C1.89543 3 1 3.89543 1 5H8L7.27639 3.55279C7.107 3.214 6.76074 3 6.38197 3H3ZM1 12C1 13.1046 1.89543 14 3 14L13 14C14.1046 14 15 13.1046 15 12V7C15 5.89543 14.1046 5 13 5L1 5V12Z" fill="var(--tbl--colors--icons--transformation--primary)"/>
</svg>

<svg xmlns="http://www.w3.org/2000/svg" width="16" height="16" fill="none" viewBox="0 0 16 16">
  <path fill="var(--tbl--colors--icons--transformation--primary)" fill-rule="evenodd" d="M3 3a2 2 0 0 0-2 2h7l-.724-1.447A1 1 0 0 0 6.382 3H3Zm-2 9a2 2 0 0 0 2 2h10a2 2 0 0 0 2-2V7a2 2 0 0 0-2-2H1v7Z" clip-rule="evenodd"/>
</svg>
